include/LD/assets/icons/action/new_account.svg

<?xml version="1.0"?><svg xmlns="http://www.w3.org/2000/svg" width="52" height="52" viewBox="0 0 52 52"><g fill="#fff"><path d="m50 26.9c0.1-1.7-1.2-2.2-1.7-2.2h-18c-1.6 0-1.8 1.7-1.8 1.8v19.5h21.5v-19.1z m-12.4 14c0 0.9-0.7 1.7-1.7 1.7h-1.7c-0.9 0-1.7-0.8-1.7-1.7v-1.7c0-0.9 0.7-1.7 1.7-1.7h1.7c0.9 0 1.7 0.8 1.7 1.7v1.7z m0-8.5c0 0.9-0.7 1.7-1.7 1.7h-1.7c-0.9 0-1.7-0.8-1.7-1.7v-1.7c0-0.9 0.7-1.7 1.7-1.7h1.7c0.9 0 1.7 0.8 1.7 1.7v1.7z m8.3 8.5c0 0.9-0.7 1.7-1.7 1.7h-1.7c-0.9 0-1.7-0.8-1.7-1.7v-1.7c0-0.9 0.7-1.7 1.7-1.7h1.7c0.9 0 1.7 0.8 1.7 1.7v1.7z m0-8.5c0 0.9-0.7 1.7-1.7 1.7h-1.7c-0.9 0-1.7-0.8-1.7-1.7v-1.7c0-0.9 0.7-1.7 1.7-1.7h1.7c0.9 0 1.7 0.8 1.7 1.7v1.7z m-12.5-14.5v-9.7c0.1-1.7-1.1-2.2-1.6-2.2h-28c-1.6 0-1.8 1.7-1.8 1.8v38.2h21.5v-24.4s0-2 1.8-2h6.5c1 0 1.6-1 1.6-1.7z m-22.3 22.2c0 0.9-0.7 1.7-1.7 1.7h-1.6c-0.9 0-1.7-0.8-1.7-1.7v-1.7c0-0.9 0.7-1.7 1.7-1.7h1.7c0.9 0 1.7 0.8 1.7 1.7v1.7z m0-8.6c0 0.9-0.7 1.7-1.7 1.7h-1.6c-0.9 0-1.7-0.8-1.7-1.7v-1.7c0-0.9 0.7-1.7 1.7-1.7h1.7c0.9 0 1.7 0.8 1.7 1.7v1.7z m0-8.5c0 0.9-0.7 1.7-1.7 1.7h-1.6c-0.9 0-1.7-0.8-1.7-1.7v-1.7c0-0.9 0.7-1.7 1.7-1.7h1.7c0.9 0 1.7 0.8 1.7 1.7v1.7z m0-8.5c0 0.9-0.7 1.7-1.7 1.7h-1.6c-0.9 0-1.7-0.8-1.7-1.7v-1.7c0-0.9 0.7-1.7 1.7-1.7h1.7c0.9 0 1.7 0.8 1.7 1.7v1.7z m9.1 25.6c0 0.9-0.7 1.7-1.7 1.7h-1.7c-0.9 0-1.7-0.8-1.7-1.7v-1.7c0-0.9 0.7-1.7 1.7-1.7h1.7c0.9 0 1.7 0.8 1.7 1.7v1.7z m0-8.6c0 0.9-0.7 1.7-1.7 1.7h-1.7c-0.9 0-1.7-0.8-1.7-1.7v-1.7c0-0.9 0.7-1.7 1.7-1.7h1.7c0.9 0 1.7 0.8 1.7 1.7v1.7z m0-8.5c0 0.9-0.7 1.7-1.7 1.7h-1.7c-0.9 0-1.7-0.8-1.7-1.7v-1.7c0-0.9 0.7-1.7 1.7-1.7h1.7c0.9 0 1.7 0.8 1.7 1.7v1.7z m0-8.5c0 0.9-0.7 1.7-1.7 1.7h-1.7c-0.9 0-1.7-0.8-1.7-1.7v-1.7c0-0.9 0.7-1.7 1.7-1.7h1.7c0.9 0 1.7 0.8 1.7 1.7v1.7z m9.1 0c0 0.9-0.7 1.7-1.7 1.7h-1.6c-0.9 0-1.7-0.8-1.7-1.7v-1.7c0-0.9 0.7-1.7 1.7-1.7h1.7c0.9 0 1.7 0.8 1.7 1.7v1.7z"></path></g></svg>

<svg xmlns="http://www.w3.org/2000/svg" x="0px" y="0px"
	 width="52px" height="52px" viewBox="0 0 52 52" enable-background="new 0 0 52 52" xml:space="preserve">
<g>
	<path fill="#FFFFFF" d="M50,26.9c0.1-1.7-1.2-2.2-1.7-2.2h-18c-1.6,0-1.8,1.7-1.8,1.8V46H50V26.9z M37.6,40.9
		c0,0.9-0.7,1.7-1.7,1.7h-1.7c-0.9,0-1.7-0.8-1.7-1.7v-1.7c0-0.9,0.7-1.7,1.7-1.7h1.7c0.9,0,1.7,0.8,1.7,1.7V40.9z M37.6,32.4
		c0,0.9-0.7,1.7-1.7,1.7h-1.7c-0.9,0-1.7-0.8-1.7-1.7v-1.7c0-0.9,0.7-1.7,1.7-1.7h1.7c0.9,0,1.7,0.8,1.7,1.7V32.4z M45.9,40.9
		c0,0.9-0.7,1.7-1.7,1.7h-1.7c-0.9,0-1.7-0.8-1.7-1.7v-1.7c0-0.9,0.7-1.7,1.7-1.7h1.7c0.9,0,1.7,0.8,1.7,1.7V40.9z M45.9,32.4
		c0,0.9-0.7,1.7-1.7,1.7h-1.7c-0.9,0-1.7-0.8-1.7-1.7v-1.7c0-0.9,0.7-1.7,1.7-1.7h1.7c0.9,0,1.7,0.8,1.7,1.7V32.4z"/>
	<path fill="#FFFFFF" d="M33.4,17.9c0-0.7,0-9.7,0-9.7C33.5,6.5,32.3,6,31.8,6h-28C2.2,6,2,7.7,2,7.8V46h21.5V21.6c0,0,0-2,1.8-2
		c0,0,5.6,0,6.5,0C32.8,19.6,33.4,18.6,33.4,17.9z M11.1,40.1c0,0.9-0.7,1.7-1.7,1.7H7.8c-0.9,0-1.7-0.8-1.7-1.7v-1.7
		c0-0.9,0.7-1.7,1.7-1.7h1.7c0.9,0,1.7,0.8,1.7,1.7V40.1z M11.1,31.5c0,0.9-0.7,1.7-1.7,1.7H7.8c-0.9,0-1.7-0.8-1.7-1.7v-1.7
		c0-0.9,0.7-1.7,1.7-1.7h1.7c0.9,0,1.7,0.8,1.7,1.7V31.5z M11.1,23c0,0.9-0.7,1.7-1.7,1.7H7.8c-0.9,0-1.7-0.8-1.7-1.7v-1.7
		c0-0.9,0.7-1.7,1.7-1.7h1.7c0.9,0,1.7,0.8,1.7,1.7V23z M11.1,14.5c0,0.9-0.7,1.7-1.7,1.7H7.8c-0.9,0-1.7-0.8-1.7-1.7v-1.7
		c0-0.9,0.7-1.7,1.7-1.7h1.7c0.9,0,1.7,0.8,1.7,1.7V14.5z M20.2,40.1c0,0.9-0.7,1.7-1.7,1.7h-1.7c-0.9,0-1.7-0.8-1.7-1.7v-1.7
		c0-0.9,0.7-1.7,1.7-1.7h1.7c0.9,0,1.7,0.8,1.7,1.7V40.1z M20.2,31.5c0,0.9-0.7,1.7-1.7,1.7h-1.7c-0.9,0-1.7-0.8-1.7-1.7v-1.7
		c0-0.9,0.7-1.7,1.7-1.7h1.7c0.9,0,1.7,0.8,1.7,1.7V31.5z M20.2,23c0,0.9-0.7,1.7-1.7,1.7h-1.7c-0.9,0-1.7-0.8-1.7-1.7v-1.7
		c0-0.9,0.7-1.7,1.7-1.7h1.7c0.9,0,1.7,0.8,1.7,1.7V23z M20.2,14.5c0,0.9-0.7,1.7-1.7,1.7h-1.7c-0.9,0-1.7-0.8-1.7-1.7v-1.7
		c0-0.9,0.7-1.7,1.7-1.7h1.7c0.9,0,1.7,0.8,1.7,1.7V14.5z M29.3,14.5c0,0.9-0.7,1.7-1.7,1.7H26c-0.9,0-1.7-0.8-1.7-1.7v-1.7
		c0-0.9,0.7-1.7,1.7-1.7h1.7c0.9,0,1.7,0.8,1.7,1.7V14.5z"/>
</g>
</svg>
